!!!OTL: 536. Vergebliche Warnung.
!!!ARE: Europa, Mitteleuropa, Deutschland
!!!SCT: E0536
!!!TXL: @@DE
!!!YEM: Copyright 1995, estate of Helmut Schaffrath.
**kern	**text
*ICvox	*
*M3/4	*
*k[b-]	*
*F:	*
!LO:TX:a:t=Mäßig.	!
!LO:TX:a:t=Vielfach mündlich, durch ganʒ Deutſchland bekannt. Schon 1807 gedr.	!
{8c	Jch
=1	=1
8f	ha-
8a	-be
4cc	mein
4a	Feins-
=2	=2
8ccL	-lieb-
8b-J	.
4g	-chen,
8r}	.
{8f	ich
=3	=3
8e	ha-
8f	-be
4g	mein
4b-	Feins-
=4	=4
8ddL	-lieb-
8ccJ	.
4a	-chen
8r}	.
{8c	ſo
=5	=5
8f	lan-
8f	-ge
4a	nicht
4cc	ge-
=6	=6
[2ff	-ſehn,
8ff]	.
{8dd	ſo
=7	=7
8cc	lan-
8b-/	-ge
(16aqq	.
4cc)	nicht
4g	ge-
=8	=8
2f	-ſehn.
8r}	.
==	==
!!!AGN: Liebes - Lied
!!!ONB: ESAC (Essen Associative Code) Database: ERK1
!!!AMT: simple triple
!!!AIN: vox
!!!EED: Helmut Schaffrath
!!!EEV: 1.0
!!!GTL: Liebeslieder [Neuere (aus dem 18. bis 19. Jahrh.) - Liebeslust]
!!!URL-scan: https://rosdok.uni-rostock.de/mcrviewer/recordIdentifier/rosdok_ppn745177662/iview2/phys_0366.iview2?x=-128.77276441889308&y=260.37435966846533&scale=0.5870222003877485&rotation=0&layout=singlePageLayout
!!!ENC: Anna Maria Matuszewska
!!!EEV: 2024/10/12
*-	*-
